resources/svg/align-center-vertical.svg

<svg xmlns="http://www.w3.org/2000/svg" viewBox="0 0 15 15" fill="currentColor"><path d="M7 1H3v6H0v1h3v6h4V8h1v3.5h4V8h3V7h-3V3.5H8V7H7V1z" fill="currentColor"/></svg>

<svg xmlns="http://www.w3.org/2000/svg" viewBox="0 0 15 15" fill="currentColor"><path d="M7 1H3V7H0V8H3V14H7V8H8V11.5H12V8H15V7H12V3.5H8V7H7V1Z" fill="black"/></svg>
